images/flaticons/carrot.svg

<svg height="512" viewBox="0 0 24 24" width="512" xmlns="http://www.w3.org/2000/svg"><path d="m22.5 5h-1.379l1.44-1.439a1.5 1.5 0 0 0 -2.122-2.122l-1.439 1.44v-1.379a1.5 1.5 0 0 0 -3 0v3.037a7.527 7.527 0 0 0 -1.829-1.18 4.1 4.1 0 0 0 -4.8 1.11c-1.716 1.718-6.389 10.282-9.021 15.233a2.92 2.92 0 0 0 3.95 3.951c4.953-2.633 13.517-7.308 15.234-9.024 2.466-2.462 1.436-4.772-.082-6.627h3.048a1.5 1.5 0 0 0 0-3zm-5.088 7.505a20 20 0 0 1 -2.835 1.951l-1.016-1.017a1.5 1.5 0 0 0 -2.122 2.122l.48.479c-2.39 1.389-5.414 3.074-8.846 4.928.963-1.808 1.878-3.5 2.732-5.042l.634.635a1.5 1.5 0 0 0 2.122-2.122l-1.234-1.233c.8-1.4 1.513-2.626 2.127-3.631l.985.986a1.5 1.5 0 0 0 2.122-2.122l-1.424-1.423a4.71 4.71 0 0 1 .357-.428c.652-.609.933-.708 1.5-.474a11.314 11.314 0 0 1 2.677 2.22c2.81 2.815 2.642 3.266 1.741 4.171z"/></svg>

<?xml version="1.0" encoding="UTF-8"?>
<svg xmlns="http://www.w3.org/2000/svg"
     id="Layer_1" data-name="Layer 1"
     viewBox="0 0 24 24" width="512" height="512">
     <path d="M22.5,5H21.121l1.44-1.439a1.5,1.5,0,0,0-2.122-2.122L19,2.879V1.5a1.5,1.5,0,0,0-3,0V4.537a7.527,7.527,0,0,0-1.829-1.18,4.1,4.1,0,0,0-4.8,1.11C7.655,6.185,2.982,14.749.35,19.7A2.92,2.92,0,0,0,4.3,23.651c4.953-2.633,13.517-7.308,15.234-9.024C22,12.165,20.97,9.855,19.452,8H22.5A1.5,1.5,0,0,0,22.5,5Zm-5.088,7.505a20,20,0,0,1-2.835,1.951l-1.016-1.017a1.5,1.5,0,0,0-2.122,2.122l.48.479c-2.39,1.389-5.414,3.074-8.846,4.928.963-1.808,1.878-3.5,2.732-5.042l.634.635a1.5,1.5,0,0,0,2.122-2.122L7.327,13.206c.8-1.4,1.513-2.626,2.127-3.631l.985.986a1.5,1.5,0,0,0,2.122-2.122L11.137,7.016a4.71,4.71,0,0,1,.357-.428c.652-.609.933-.708,1.5-.474a11.314,11.314,0,0,1,2.677,2.22C18.481,11.149,18.313,11.6,17.412,12.505Z"/>
    </svg>
